peiko/img/icons/close.svg

<svg width="20" height="20"><path fill-rule="evenodd" fill="#43BAD6" d="M19.986 17.952l-2.051 2.047-7.949-7.962-7.817 7.83-2.023-2.02 7.82-7.833L.014 2.048 2.064.001l7.949 7.962 7.818-7.83 2.023 2.02-7.821 7.833 7.953 7.966z"/></svg>

<svg 
 width="20px" height="20px">
<path fill-rule="evenodd"  fill="rgb(67, 186, 214)"
 d="M19.986,17.952 L17.935,19.999 L9.986,12.037 L2.169,19.867 L0.146,17.847 L7.966,10.014 L0.014,2.048 L2.064,0.001 L10.013,7.963 L17.831,0.133 L19.854,2.153 L12.033,9.986 L19.986,17.952 Z"/>
</svg>
